svg/u1f931_1f3ff.svg

<svg viewBox="0 0 128 128" xmlns="http://www.w3.org/2000/svg">
  <path id="hair" d="M55.42,4.53C31.82,7.75,32.99,29.5,32.96,33.68C32.92,37.85,35.11,72,38.99,79.5 c3.15,6.09,17,2.82,17,2.82l11.01-1.75l8.59-1.34c0,0,4.67-0.81,6.64-4.72c4.98-9.86,5.27-33.09,2.77-49.02 C84.93,25.1,82.1,0.89,55.42,4.53z" fill="#232020"/>
  <radialGradient id="hairHighlights_2_" cx="60.8528" cy="-269.2576" gradientTransform="matrix(0.063 0.8236 -0.6981 0.0534 -131.2251 6.0494)" gradientUnits="userSpaceOnUse" r="45.2187">
    <stop offset="0.7989" stop-color="#444140" stop-opacity="0"/>
    <stop offset="1" stop-color="#444140"/>
  </radialGradient>
  <path id="hairHighlights_1_" d="M55.42,4.53C31.82,7.75,32.99,29.5,32.96,33.68 C32.92,37.85,35.11,72,38.99,79.5c3.15,6.09,17,2.82,17,2.82l11.01-1.75l8.59-1.34c0,0,4.67-0.81,6.64-4.72 c4.98-9.86,5.27-33.09,2.77-49.02C84.93,25.1,82.1,0.89,55.42,4.53z" fill="url(#hairHighlights_2_)"/>
  <g id="shirt">
    <g>
      <linearGradient id="SVGID_1_" gradientTransform="matrix(1 0 0 1 0 2)" gradientUnits="userSpaceOnUse" x1="67.9999" x2="67.9999" y1="65.5108" y2="122.2641">
        <stop offset="0" stop-color="#651FFF"/>
        <stop offset="1" stop-color="#530EEB"/>
      </linearGradient>
      <path d="M109.89,106.15c-2.96-11.05-6.39-19.27-13.57-28.17c-2.95-3.66-8.58-8.45-16.58-9.83 c-5.01-0.86-21.72-0.73-26.63-0.32c-15.27,1.29-20.16,6.19-24.7,22.6c-2.03,7.33-3.33,14.31-3.38,19.92 c-0.08,9.29,3.02,12.15,9.29,13.33c3.96,0.75,15.57,0.54,22.11-1.67c4.87-1.64,14.61-0.71,18.72,2.81 c0.73,0.63,2.08,0.68,3.16,0.63c0,0,4.62-0.47,10.7-1.12c5.35-0.58,11.22-0.91,16.33-2.61 C113.62,118.98,110.47,108.32,109.89,106.15z M88.56,110.17c1.27-4.96,0.68-14.54,0.68-14.54c0.49,3.65,6.94,12.85,6.94,12.85 L88.56,110.17z" fill="url(#SVGID_1_)"/>
    </g>
  </g>
  <g id="bodyGroup">
    <linearGradient id="chest_1_" gradientTransform="matrix(1 0 0 1 0 2)" gradientUnits="userSpaceOnUse" x1="61.4072" x2="61.4072" y1="102.0931" y2="59.9743">
      <stop offset="0.5" stop-color="#70534A"/>
      <stop offset="1" stop-color="#5C4037"/>
    </linearGradient>
    <path id="chest" d="M75.27,67.73l-3.77-0.22c0-0.03-0.7-7.34-0.7-7.34l-7.11,1.12l-5.9,0.54 l-0.34,5.61l-4.34,0.39c-1.37,2.5,0.83,9.08-2.37,15.33c-2.14,4.18-8.21,7.09-7.63,12.25c1.36,12.13,12.8,14.53,22.49,14.08 c9.69-0.46,14.14-2.49,14.14-2.49C70.86,91.25,75.27,67.73,75.27,67.73z" fill="url(#chest_1_)"/>
    <path id="tone_2_" d="M62.51,101.4c-0.25,0-0.5-0.08-0.71-0.23c-0.48-0.36-0.55-1-0.15-1.44 c3.33-3.7,3.33-10.29,0.81-13.89c-0.45-0.64-0.96-1.26-0.6-1.56c0.35-0.29,0.83-0.07,1.23,0.36c3.69,3.96,5.31,11.45,0.78,16.24 C63.63,101.12,62.83,101.4,62.51,101.4z" fill="#4A2F27"/>
  </g>
  <linearGradient id="hand_1_" gradientTransform="matrix(1 0 0 1 0 2)" gradientUnits="userSpaceOnUse" x1="42.8471" x2="65.6441" y1="118.2891" y2="118.2891">
    <stop offset="0.5" stop-color="#70534A"/>
    <stop offset="1" stop-color="#5C4037"/>
  </linearGradient>
  <path id="hand_2_" d="M73.1,115.25l-9.22,2.29l-11.5,5.08c0,0,5.4,1.63,8.49,2.2 c6.3,1.15,14.31,0.02,14.31,0.02s-1.71-2.98-2.06-5.33C72.76,117.16,73.1,115.25,73.1,115.25z" fill="url(#hand_1_)"/>
  <linearGradient id="shirtShadow_2_" gradientTransform="matrix(1 0 0 1 0 2)" gradientUnits="userSpaceOnUse" x1="62.1594" x2="64.678" y1="115.359" y2="122.2587">
    <stop offset="0.2105" stop-color="#212121" stop-opacity="0.4"/>
    <stop offset="0.709" stop-color="#252525" stop-opacity="0"/>
  </linearGradient>
  <path id="shirtShadow_1_" d="M59.19,124.46l13.98-4.6c-0.02-0.12-0.05-0.24-0.07-0.36 c-0.35-2.35-0.01-4.25-0.01-4.25l-9.22,2.29l-11.5,5.08C52.37,122.62,56.15,123.76,59.19,124.46z" fill="url(#shirtShadow_2_)"/>
  <g id="baby">
    <path d="M34.97,108.44c2.23-0.28,4.59,0.01,6.55,0.38c1.76,0.29,4.49,1.08,7.41,1.43 c0.69,0.05,1.38,0.07,2.04,0.07c3.13-0.85,3.86-2.96,4.9-6.41c1.12-3.7,0.82-7.31-0.99-10.29c-2.71-4.43-7.42-7.04-11.73-6.49 c-1.58,0.2-4.35,0.58-5.78,1.57c-3.55,2.46-5.27,5.94-5.93,9.13C31.2,98.98,30.17,105.33,34.97,108.44z" fill="#C5E1A5"/>
    <path d="M36.02,87.46c-2.53,1.99-3.99,4.85-3.55,7.16c0.74-1.3,1.24-3.13,4.24-4.93 c6.6-3.98,13.78-1.03,16.49,5.62c3.03,7.44-1.72,15.05-1.72,15.05c3.12-0.58,4.02-2.11,4.02-2.11c4.7-5.03,5.3-11.85,0.51-18.11 C51.24,83.88,42.89,82.06,36.02,87.46z" fill="#FAFAFA"/>
    <path d="M54.48,108.41c1.36-1.76,3.15-6.07,4.75-8.65c2.6-4.19,8.13-6.75,14.51-5.1 c7.62,1.97,10.24,6.03,11.62,6.92s7.29-1.79,11.34,7.58c0,0-4.76,0.23-6.88,1.02c-3.48,1.3-9.14,4.43-12.84,4.75 c-9.36,0.81-17.65-4.91-17.65-4.91c-2.82-0.14-7.84,0.32-7.84,0.32S53.12,110.17,54.48,108.41z" fill="#BDBDBD"/>
    <linearGradient id="SVGID_2_" gradientTransform="matrix(1 0 0 1 0 2)" gradientUnits="userSpaceOnUse" x1="59.651" x2="63.4934" y1="112.9338" y2="96.9503">
      <stop offset="0.2105" stop-color="#212121" stop-opacity="0.4"/>
      <stop offset="1" stop-color="#252525" stop-opacity="0"/>
    </linearGradient>
    <path d="M41.53,105.03c4.81,0.25,9.77-2.9,12.55-6.88c0.85,0.37,1.86,0.22,2.69-0.18 c0.83-0.41,1.52-1.06,2.18-1.71c0.64,2.13,0.29,3.52,0.29,3.52c0.66,1.14,2.1,1.23,3.43,0.4c1.38-0.86,3.21,3.25,3.21,3.25 c2.91-1.29,6.22-4,6.96-4.49s2.8,0.51,2.48,1.53c-0.38,1.24-0.79,1.74-1.11,3c1.38-0.67,3.45-1.91,4.02-2.25 c1.44-0.86,3.23-0.17,3.02,2.25c-0.05,0.53-0.76,4.78-0.9,4.73c3.88,1.43,10.62-1.03,13.45,1.23c-0.8,0.1-4.26,0.73-6.38,1.81 c-9.08,4.61-11.31,3.66-13.22,4.08c-2.33,0.52-16.44-3.75-19.21-4.5c-2.04-0.56-4.6-0.29-6.76-0.51c-4.7-0.47-8.92-1.64-14.55-0.43 c-0.75,0.16-4.33,0.91-4.47,1.26c1.12-2.83,0.05-5.04,0.51-8.05c0.42-2.74,1.59-3.5,1.51-3.81 C31.25,99.29,31.86,104.52,41.53,105.03z" fill="url(#SVGID_2_)"/>
  </g>
  <g id="handGroup">
    <linearGradient id="hand_3_" gradientTransform="matrix(0.9883 -0.1524 0.1524 0.9883 -74.9041 185.7506)" gradientUnits="userSpaceOnUse" x1="143.9116" x2="166.6302" y1="-53.9269" y2="-53.9269">
      <stop offset="0.5" stop-color="#70534A"/>
      <stop offset="1" stop-color="#5C4037"/>
    </linearGradient>
    <path id="hand" d="M59.1,110.51c0.08-4.93,3.12-5.52,3.8-9.97c0.04-0.29,2.29-1.6,2.59,1.31 c0.12,1.22-0.19,2.5-0.71,3.61c-0.24,0.51-0.12,1.19,1.97,0.21c3.1-1.45,4.49-4,6.08-5.89c0.42-0.5,1.23-0.63,1.67-0.43 c0.69,0.31,1.06,0.87,0.59,2.25c-0.91,2.67-3.56,5.18-3.56,5.18c2.28-0.2,4.63-2.27,6.32-3.81c0.71-0.65,1.22-1.41,2.11-1.3 c1.03,0.12,1.19,1.8,0.62,2.83c-0.32,0.6-0.4,0.82-0.4,0.82s1.04,1.36,0.72,2.4c-0.23,0.76-0.88,1.72-0.88,1.72 c-0.54,2.02-1.81,3.26-5.42,5.71c-5.24,3.57-13,4.78-13,4.78C61.98,114.19,59.1,110.51,59.1,110.51z" fill="url(#hand_3_)"/>
    <path id="tone_1_" d="M80.91,102.87c-0.37,1.09-1.07,2.28-1.65,3.07c-2,2.72-5.69,3.99-5.51,4.37 s4.19-0.88,5.79-3.3C81.31,104.33,80.91,102.87,80.91,102.87z" fill="#4A2F27"/>
    <path id="tone" d="M80.82,106.38c0,0,0.21,1.84-2.58,4.34c-1.25,1.13-3.73,2.35-3.73,2.35 s2.44-0.17,4.17-1.81c2.37-2.25,2.26-2.89,2.36-3.57C81.13,107.04,80.82,106.38,80.82,106.38z" fill="#4A2F27"/>
  </g>
  <linearGradient id="SVGID_3_" gradientTransform="matrix(1 0 0 1 0 2)" gradientUnits="userSpaceOnUse" x1="55.0655" x2="31.8419" y1="114.0942" y2="114.0942">
    <stop offset="0.2944" stop-color="#651FFF"/>
    <stop offset="1" stop-color="#641EFE" stop-opacity="0"/>
  </linearGradient>
  <path d="M61.14,111.75c-1.95-2.93-4.05-1.88-6.55-1.6c-0.85,0.1-3.32,0.27-5.66,0.09 c-2.92-0.35-5.65-1.13-7.41-1.43c-3.97-0.74-9.54-1.18-12.4,2.8c-2.86,3.98-0.71,8.91,3.35,10.66c6.4,2.76,17.64,1.55,25.81-0.75 C64.21,119.84,63.11,114.7,61.14,111.75z" fill="url(#SVGID_3_)"/>
  <path id="head" d="M55.98,12.37L55.98,12.37L55.98,12.37c-11.14,1.88-20.06,11.9-17.1,29.46 c2.38,14.11,12.52,20.98,20.58,22.39c1.92,0.34,3.73,0.36,5.28,0.1c1.54-0.26,3.23-0.87,4.92-1.81 c7.16-3.96,14.51-13.79,12.13-27.91C78.83,17.03,67.12,10.49,55.98,12.37z" fill="#70534A"/>
  <path id="mouth_1_" d="M67.79,50.46c-1.85,1.53-8.54,2.59-10.78,1.69c-1.28-0.51-2.31,0.74-1.66,1.73 c0.64,0.97,4.68,2.83,7.83,2.33c3.16-0.5,6.38-3.49,6.69-4.62C70.2,50.46,68.85,49.58,67.79,50.46z" fill="#1A1717"/>
  <path id="nose_1_" d="M63.84,44.38c-0.07-0.02-0.14-0.02-0.22-0.02l-4.53,0.71c-0.07,0.02-0.13,0.05-0.2,0.08 c-0.38,0.23-0.54,0.69-0.28,1.12s1.37,1.55,3.19,1.27c1.82-0.29,2.52-1.7,2.64-2.19C64.57,44.87,64.28,44.48,63.84,44.38z" fill="#33251F"/>
  <g id="eyes_1_">
    <path d="M50.16,42.71c-1.33,0.21-2.58,0.07-3.49-0.31c-0.39-0.17-0.58,0-0.45,0.4 c0.5,1.57,2.33,2.56,4.31,2.25c1.98-0.31,3.42-1.81,3.41-3.46c0-0.42-0.23-0.53-0.55-0.25C52.64,41.99,51.5,42.5,50.16,42.71z" fill="#1A1717"/>
    <path d="M71.32,39.38c-1.33,0.21-2.58,0.07-3.49-0.31c-0.39-0.17-0.58,0-0.45,0.4 c0.5,1.57,2.33,2.56,4.31,2.25c1.98-0.31,3.42-1.81,3.41-3.46c0-0.42-0.23-0.53-0.55-0.25C73.8,38.66,72.65,39.17,71.32,39.38z" fill="#1A1717"/>
  </g>
  <g id="eyebrows_1_">
    <path d="M53.86,35.15c-0.73-0.7-2.3-1.64-5-1.22c-2.7,0.42-3.91,1.8-4.38,2.69 c-0.21,0.39-0.08,0.79,0.14,1.01c0.21,0.2,0.74,0.33,1.27,0.06s1.53-1.01,3.35-1.31c1.83-0.27,3.01,0.12,3.59,0.22 s1.06-0.19,1.19-0.44C54.18,35.88,54.18,35.47,53.86,35.15z" fill="#1A1717"/>
    <path d="M74.94,31.84c-0.73-0.7-2.3-1.64-5-1.22c-2.7,0.42-3.91,1.8-4.38,2.69 c-0.21,0.39-0.08,0.79,0.14,1.01c0.21,0.2,0.75,0.33,1.27,0.06s1.53-1.01,3.35-1.31c1.83-0.27,3.01,0.12,3.59,0.22 c0.59,0.1,1.06-0.19,1.19-0.44C75.26,32.57,75.26,32.15,74.94,31.84z" fill="#1A1717"/>
  </g>
  <path id="hair_1_" d="M83.27,28.28c-0.56-5.06-4.41-24.86-28.12-21.61c-22,3.02-20.21,25.08-19.92,30.02 c0.21,3.7,0.71,10.99,1.22,15.06c0.53,4.28,4.98,5.2,4.98,5.2s-0.02-6.26-0.31-12.28c-0.26-5.34-0.21-9.75,2.21-10.65 c14.11-5.23,20.99-14.53,20.99-14.53c2.87,4.33,10.26,7.82,12.93,9.17c2.19,1.11,2.84,7,3.19,9.49l-0.67,17.78 c0,0,4.35-2.65,4.65-7.04C84.69,44.86,83.83,33.34,83.27,28.28z" fill="#232020"/>
  <radialGradient id="hairHighlights_3_" cx="57.5165" cy="-270.4961" gradientTransform="matrix(-0.0911 -0.8209 0.6548 -0.0703 242.906 71.1586)" gradientUnits="userSpaceOnUse" r="48.5034">
    <stop offset="0.7895" stop-color="#444140" stop-opacity="0"/>
    <stop offset="1" stop-color="#444140"/>
  </radialGradient>
  <path id="hairHighlights" d="M83.27,28.28c-0.56-5.06-4.41-24.86-28.12-21.61 c-22,3.02-20.21,25.08-19.92,30.02c0.21,3.7,0.71,10.99,1.22,15.06c0.53,4.28,4.98,5.2,4.98,5.2s-0.02-6.26-0.31-12.28 c-0.26-5.34-0.21-9.75,2.21-10.65c14.11-5.23,20.99-14.53,20.99-14.53c2.87,4.33,10.26,7.82,12.93,9.17c2.19,1.11,2.84,7,3.19,9.49 l-0.67,17.78c0,0,4.35-2.65,4.65-7.04C84.69,44.86,83.83,33.34,83.27,28.28z" fill="url(#hairHighlights_3_)"/>
  <linearGradient id="shirtShadow_3_" gradientTransform="matrix(1 0 0 1 0 2)" gradientUnits="userSpaceOnUse" x1="93.5418" x2="96.102" y1="104.398" y2="93.7483">
    <stop offset="0.2105" stop-color="#212121" stop-opacity="0.4"/>
    <stop offset="1" stop-color="#252525" stop-opacity="0"/>
  </linearGradient>
  <path id="shirtShadow" d="M88.24,92.14c0,0,4.88,7.63,8.33,11.63s4.98,5.67,4.98,5.67 s-1.86-0.02-4.63,0.1c0,0-1.83-4.42-3.64-5.36C93.27,104.18,88.89,96.89,88.24,92.14z" fill="url(#shirtShadow_3_)"/>
</svg>

<svg viewBox="0 0 128 128" xmlns="http://www.w3.org/2000/svg">
  <defs>
    <linearGradient id="SVGID_3_" gradientUnits="userSpaceOnUse" x1="55.0655" x2="31.8419" y1="116.0942" y2="116.0942">
      <stop offset="0.2944" stop-color="#651FFF"/>
      <stop offset="1" stop-color="#641EFE" stop-opacity="0"/>
    </linearGradient>
    <radialGradient id="hairHighlights_2_" cx="56.038273" cy="-81.717441" gradientTransform="matrix(0.063 0.8236 -0.6981 0.0534 0 0)" gradientUnits="userSpaceOnUse" r="45.2187">
      <stop offset="0.7989" stop-color="#444140" stop-opacity="0"/>
      <stop offset="1" stop-color="#444140"/>
    </radialGradient>
    <radialGradient id="hairHighlights_3_" cx="-59.540813" cy="84.180257" gradientTransform="matrix(-0.0911 -0.8209 0.6548 -0.0703 0 0)" gradientUnits="userSpaceOnUse" r="48.5034">
      <stop offset="0.7895" stop-color="#444140" stop-opacity="0"/>
      <stop offset="1" stop-color="#444140"/>
    </radialGradient>
    <linearGradient id="hand_1_" gradientUnits="userSpaceOnUse" x1="42.8471" x2="65.6441" y1="120.2891" y2="120.2891">
      <stop offset="0.5" stop-color="#70534A"/>
      <stop offset="1" stop-color="#5C4037"/>
    </linearGradient>
    <linearGradient id="shirtShadow_2_" gradientUnits="userSpaceOnUse" x1="62.1594" x2="64.678" y1="117.359" y2="124.2587">
      <stop offset="0.2105" stop-color="#212121" stop-opacity="0.4"/>
      <stop offset="0.709" stop-color="#252525" stop-opacity="0"/>
    </linearGradient>
    <linearGradient id="shirtShadow_3_" gradientUnits="userSpaceOnUse" x1="93.5418" x2="96.102" y1="106.398" y2="95.7483">
      <stop offset="0.2105" stop-color="#212121" stop-opacity="0.4"/>
      <stop offset="1" stop-color="#252525" stop-opacity="0"/>
    </linearGradient>
    <linearGradient id="SVGID_2_" gradientUnits="userSpaceOnUse" x1="59.651" x2="63.4934" y1="114.9338" y2="98.9503">
      <stop offset="0.2105" stop-color="#212121" stop-opacity="0.4"/>
      <stop offset="1" stop-color="#252525" stop-opacity="0"/>
    </linearGradient>
    <linearGradient id="chest_1_" gradientUnits="userSpaceOnUse" x1="61.4072" x2="61.4072" y1="104.0931" y2="61.9743">
      <stop offset="0.5" stop-color="#70534A"/>
      <stop offset="1" stop-color="#5C4037"/>
    </linearGradient>
    <linearGradient id="hand_3_" gradientTransform="matrix(0.9883 -0.1524 0.1524 0.9883 0 0)" gradientUnits="userSpaceOnUse" x1="41.571664" x2="64.290264" y1="118.241464" y2="118.241464">
      <stop offset="0.5" stop-color="#70534A"/>
      <stop offset="1" stop-color="#5C4037"/>
    </linearGradient>
    <linearGradient id="SVGID_1_" gradientUnits="userSpaceOnUse" x1="67.9999" x2="67.9999" y1="67.5108" y2="124.2641">
      <stop offset="0" stop-color="#651FFF"/>
      <stop offset="1" stop-color="#530EEB"/>
    </linearGradient>
  </defs>
  <path id="hair" d="M55.42,4.53 C31.82,7.75 32.99,29.5 32.96,33.68 C32.92,37.85 35.11,72 38.99,79.5 C42.14,85.59 55.99,82.32 55.99,82.32 L67,80.57 L75.59,79.23 C75.59,79.23 80.26,78.42 82.23,74.51 C87.21,64.65 87.5,41.42 85,25.49 C84.93,25.1 82.1,0.89 55.42,4.53 Z" fill="#232020"/>
  <path id="hairHighlights_1_" d="M55.42,4.53 C31.82,7.75 32.99,29.5 32.96,33.68 C32.92,37.85 35.11,72 38.99,79.5 C42.14,85.59 55.99,82.32 55.99,82.32 L67,80.57 L75.59,79.23 C75.59,79.23 80.26,78.42 82.23,74.51 C87.21,64.65 87.5,41.42 85,25.49 C84.93,25.1 82.1,0.89 55.42,4.53 Z" fill="url(#hairHighlights_2_)"/>
  <path d="M109.89,106.15 C106.93,95.1 103.5,86.88 96.32,77.98 C93.37,74.32 87.74,69.53 79.74,68.15 C74.73,67.29 58.02,67.42 53.11,67.83 C37.84,69.12 32.95,74.02 28.41,90.43 C26.38,97.76 25.08,104.74 25.03,110.35 C24.95,119.64 28.05,122.5 34.32,123.68 C38.28,124.43 49.89,124.22 56.43,122.01 C61.3,120.37 71.04,121.3 75.15,124.82 C75.88,125.45 77.23,125.5 78.31,125.45 C78.31,125.45 82.93,124.98 89.01,124.33 C94.36,123.75 100.23,123.42 105.34,121.72 C113.62,118.98 110.47,108.32 109.89,106.15 Z M88.56,110.17 C89.83,105.21 89.24,95.63 89.24,95.63 C89.73,99.28 96.18,108.48 96.18,108.48 L88.56,110.17 Z" fill="url(#SVGID_1_)"/>
  <path id="chest" d="M75.27,67.73 L71.5,67.51 C71.5,67.48 70.8,60.17 70.8,60.17 L63.69,61.29 L57.79,61.83 L57.45,67.44 L53.11,67.83 C51.74,70.33 53.94,76.91 50.74,83.16 C48.6,87.34 42.53,90.25 43.11,95.41 C44.47,107.54 55.91,109.94 65.6,109.49 C75.29,109.03 79.74,107 79.74,107 C70.86,91.25 75.27,67.73 75.27,67.73 Z" fill="url(#chest_1_)"/>
  <path id="tone_2_" d="M62.51,101.4 C62.26,101.4 62.01,101.32 61.8,101.17 C61.32,100.81 61.25,100.17 61.65,99.73 C64.98,96.03 64.98,89.44 62.46,85.84 C62.01,85.2 61.5,84.58 61.86,84.28 C62.21,83.99 62.69,84.21 63.09,84.64 C66.78,88.6 68.4,96.09 63.87,100.88 C63.63,101.12 62.83,101.4 62.51,101.4 Z" fill="#4A2F27"/>
  <path id="hand_2_" d="M73.1,115.25 L63.88,117.54 L52.38,122.62 C52.38,122.62 57.78,124.25 60.87,124.82 C67.17,125.97 75.18,124.84 75.18,124.84 C75.18,124.84 73.47,121.86 73.12,119.51 C72.76,117.16 73.1,115.25 73.1,115.25 Z" fill="url(#hand_1_)"/>
  <path id="shirtShadow_1_" d="M59.19,124.46 L73.17,119.86 C73.15,119.74 73.12,119.62 73.1,119.5 C72.75,117.15 73.09,115.25 73.09,115.25 L63.87,117.54 L52.37,122.62 C52.37,122.62 56.15,123.76 59.19,124.46 Z" fill="url(#shirtShadow_2_)"/>
  <path d="M34.97,108.44 C37.2,108.16 39.56,108.45 41.52,108.82 C43.28,109.11 46.01,109.9 48.93,110.25 C49.62,110.3 50.31,110.32 50.97,110.32 C54.1,109.47 54.83,107.36 55.87,103.91 C56.99,100.21 56.69,96.6 54.88,93.62 C52.17,89.19 47.46,86.58 43.15,87.13 C41.57,87.33 38.8,87.71 37.37,88.7 C33.82,91.16 32.1,94.64 31.44,97.83 C31.2,98.98 30.17,105.33 34.97,108.44 Z" fill="#C5E1A5"/>
  <path d="M36.02,87.46 C33.49,89.45 32.03,92.31 32.47,94.62 C33.21,93.32 33.71,91.49 36.71,89.69 C43.31,85.71 50.49,88.66 53.2,95.31 C56.23,102.75 51.48,110.36 51.48,110.36 C54.6,109.78 55.5,108.25 55.5,108.25 C60.2,103.22 60.8,96.4 56.01,90.14 C51.24,83.88 42.89,82.06 36.02,87.46 Z" fill="#FAFAFA"/>
  <path d="M54.48,108.41 C55.84,106.65 57.63,102.34 59.23,99.76 C61.83,95.57 67.36,93.01 73.74,94.66 C81.36,96.63 83.98,100.69 85.36,101.58 C86.74,102.47 92.65,99.79 96.7,109.16 C96.7,109.16 91.94,109.39 89.82,110.18 C86.34,111.48 80.68,114.61 76.98,114.93 C67.62,115.74 59.33,110.02 59.33,110.02 C56.51,109.88 51.49,110.34 51.49,110.34 C51.49,110.34 53.12,110.17 54.48,108.41 Z" fill="#BDBDBD"/>
  <path d="M41.53,105.03 C46.34,105.28 51.3,102.13 54.08,98.15 C54.93,98.52 55.94,98.37 56.77,97.97 C57.6,97.56 58.29,96.91 58.95,96.26 C59.59,98.39 59.24,99.78 59.24,99.78 C59.9,100.92 61.34,101.01 62.67,100.18 C64.05,99.32 65.88,103.43 65.88,103.43 C68.79,102.14 72.1,99.43 72.84,98.94 C73.58,98.45 75.64,99.45 75.32,100.47 C74.94,101.71 74.53,102.21 74.21,103.47 C75.59,102.8 77.66,101.56 78.23,101.22 C79.67,100.36 81.46,101.05 81.25,103.47 C81.2,104 80.49,108.25 80.35,108.2 C84.23,109.63 90.97,107.17 93.8,109.43 C93,109.53 89.54,110.16 87.42,111.24 C78.34,115.85 76.11,114.9 74.2,115.32 C71.87,115.84 57.76,111.57 54.99,110.82 C52.95,110.26 50.39,110.53 48.23,110.31 C43.53,109.84 39.31,108.67 33.68,109.88 C32.93,110.04 29.35,110.79 29.21,111.14 C30.33,108.31 29.26,106.1 29.72,103.09 C30.14,100.35 31.31,99.59 31.23,99.28 C31.25,99.29 31.86,104.52 41.53,105.03 Z" fill="url(#SVGID_2_)"/>
  <path id="hand" d="M59.1,110.51 C59.18,105.58 62.22,104.99 62.9,100.54 C62.94,100.25 65.19,98.94 65.49,101.85 C65.61,103.07 65.3,104.35 64.78,105.46 C64.54,105.97 64.66,106.65 66.75,105.67 C69.85,104.22 71.24,101.67 72.83,99.78 C73.25,99.28 74.06,99.15 74.5,99.35 C75.19,99.66 75.56,100.22 75.09,101.6 C74.18,104.27 71.53,106.78 71.53,106.78 C73.81,106.58 76.16,104.51 77.85,102.97 C78.56,102.32 79.07,101.56 79.96,101.67 C80.99,101.79 81.15,103.47 80.58,104.5 C80.26,105.1 80.18,105.32 80.18,105.32 C80.18,105.32 81.22,106.68 80.9,107.72 C80.67,108.48 80.02,109.44 80.02,109.44 C79.48,111.46 78.21,112.7 74.6,115.15 C69.36,118.72 61.6,119.93 61.6,119.93 C61.98,114.19 59.1,110.51 59.1,110.51 Z" fill="url(#hand_3_)"/>
  <path id="tone_1_" d="M80.91,102.87 C80.54,103.96 79.84,105.15 79.26,105.94 C77.26,108.66 73.57,109.93 73.75,110.31 C73.93,110.69 77.94,109.43 79.54,107.01 C81.31,104.33 80.91,102.87 80.91,102.87 Z" fill="#4A2F27"/>
  <path id="tone" d="M80.82,106.38 C80.82,106.38 81.03,108.22 78.24,110.72 C76.99,111.85 74.51,113.07 74.51,113.07 C74.51,113.07 76.95,112.9 78.68,111.26 C81.05,109.01 80.94,108.37 81.04,107.69 C81.13,107.04 80.82,106.38 80.82,106.38 Z" fill="#4A2F27"/>
  <path d="M61.14,111.75 C59.19,108.82 57.09,109.87 54.59,110.15 C53.74,110.25 51.27,110.42 48.93,110.24 C46.01,109.89 43.28,109.11 41.52,108.81 C37.55,108.07 31.98,107.63 29.12,111.61 C26.26,115.59 28.41,120.52 32.47,122.27 C38.87,125.03 50.11,123.82 58.28,121.52 C64.21,119.84 63.11,114.7 61.14,111.75 Z" fill="url(#SVGID_3_)"/>
  <path id="head" d="M55.98,12.37 L55.98,12.37 L55.98,12.37 C44.84,14.25 35.92,24.27 38.88,41.83 C41.26,55.94 51.4,62.81 59.46,64.22 C61.38,64.56 63.19,64.58 64.74,64.32 C66.28,64.06 67.97,63.45 69.66,62.51 C76.82,58.55 84.17,48.72 81.79,34.6 C78.83,17.03 67.12,10.49 55.98,12.37 Z" fill="#70534A"/>
  <path id="mouth_1_" d="M67.79,50.46 C65.94,51.99 59.25,53.05 57.01,52.15 C55.73,51.64 54.7,52.89 55.35,53.88 C55.99,54.85 60.03,56.71 63.18,56.21 C66.34,55.71 69.56,52.72 69.87,51.59 C70.2,50.46 68.85,49.58 67.79,50.46 Z" fill="#1A1717"/>
  <path id="nose_1_" d="M63.84,44.38 C63.77,44.36 63.7,44.36 63.62,44.36 L59.09,45.07 C59.02,45.09 58.96,45.12 58.89,45.15 C58.51,45.38 58.35,45.84 58.61,46.27 C58.87,46.7 59.98,47.82 61.8,47.54 C63.62,47.25 64.32,45.84 64.44,45.35 C64.57,44.87 64.28,44.48 63.84,44.38 Z" fill="#33251F"/>
  <path d="M50.16,42.71 C48.83,42.92 47.58,42.78 46.67,42.4 C46.28,42.23 46.09,42.4 46.22,42.8 C46.72,44.37 48.55,45.36 50.53,45.05 C52.51,44.74 53.95,43.24 53.94,41.59 C53.94,41.17 53.71,41.06 53.39,41.34 C52.64,41.99 51.5,42.5 50.16,42.71 Z" fill="#1A1717"/>
  <path d="M71.32,39.38 C69.99,39.59 68.74,39.45 67.83,39.07 C67.44,38.9 67.25,39.07 67.38,39.47 C67.88,41.04 69.71,42.03 71.69,41.72 C73.67,41.41 75.11,39.91 75.1,38.26 C75.1,37.84 74.87,37.73 74.55,38.01 C73.8,38.66 72.65,39.17 71.32,39.38 Z" fill="#1A1717"/>
  <path d="M53.86,35.15 C53.13,34.45 51.56,33.51 48.86,33.93 C46.16,34.35 44.95,35.73 44.48,36.62 C44.27,37.01 44.4,37.41 44.62,37.63 C44.83,37.83 45.36,37.96 45.89,37.69 C46.42,37.42 47.42,36.68 49.24,36.38 C51.07,36.11 52.25,36.5 52.83,36.6 C53.41,36.7 53.89,36.41 54.02,36.16 C54.18,35.88 54.18,35.47 53.86,35.15 Z" fill="#1A1717"/>
  <path d="M74.94,31.84 C74.21,31.14 72.64,30.2 69.94,30.62 C67.24,31.04 66.03,32.42 65.56,33.31 C65.35,33.7 65.48,34.1 65.7,34.32 C65.91,34.52 66.45,34.65 66.97,34.38 C67.49,34.11 68.5,33.37 70.32,33.07 C72.15,32.8 73.33,33.19 73.91,33.29 C74.5,33.39 74.97,33.1 75.1,32.85 C75.26,32.57 75.26,32.15 74.94,31.84 Z" fill="#1A1717"/>
  <path id="hair_1_" d="M83.27,28.28 C82.71,23.22 78.86,3.42 55.15,6.67 C33.15,9.69 34.94,31.75 35.23,36.69 C35.44,40.39 35.94,47.68 36.45,51.75 C36.98,56.03 41.43,56.95 41.43,56.95 C41.43,56.95 41.41,50.69 41.12,44.67 C40.86,39.33 40.91,34.92 43.33,34.02 C57.44,28.79 64.32,19.49 64.32,19.49 C67.19,23.82 74.58,27.31 77.25,28.66 C79.44,29.77 80.09,35.66 80.44,38.15 L79.77,55.93 C79.77,55.93 84.12,53.28 84.42,48.89 C84.69,44.86 83.83,33.34 83.27,28.28 Z" fill="#232020"/>
  <path id="hairHighlights" d="M83.27,28.28 C82.71,23.22 78.86,3.42 55.15,6.67 C33.15,9.69 34.94,31.75 35.23,36.69 C35.44,40.39 35.94,47.68 36.45,51.75 C36.98,56.03 41.43,56.95 41.43,56.95 C41.43,56.95 41.41,50.69 41.12,44.67 C40.86,39.33 40.91,34.92 43.33,34.02 C57.44,28.79 64.32,19.49 64.32,19.49 C67.19,23.82 74.58,27.31 77.25,28.66 C79.44,29.77 80.09,35.66 80.44,38.15 L79.77,55.93 C79.77,55.93 84.12,53.28 84.42,48.89 C84.69,44.86 83.83,33.34 83.27,28.28 Z" fill="url(#hairHighlights_3_)"/>
  <path id="shirtShadow" d="M88.24,92.14 C88.24,92.14 93.12,99.77 96.57,103.77 C100.02,107.77 101.55,109.44 101.55,109.44 C101.55,109.44 99.69,109.42 96.92,109.54 C96.92,109.54 95.09,105.12 93.28,104.18 C93.27,104.18 88.89,96.89 88.24,92.14 Z" fill="url(#shirtShadow_3_)"/>
</svg>
